Icons/Transportation_2.svg

<svg xmlns="http://www.w3.org/2000/svg" xml:space="preserve" fill-rule="evenodd" stroke-linecap="round" stroke-linejoin="round" clip-rule="evenodd" viewBox="0 0 24 24"><path fill="none" d="M0 0h24v24H0z"/><circle cx="12" cy="7" r="1" fill="none" stroke="#000" stroke-width="2"/><path fill="none" stroke="#000" stroke-width="2" d="m9 20 3-6 3 6m-6-7 3-3 3 3m-3-3v4"/><path fill="none" stroke="#000" stroke-miterlimit="1.5" stroke-width="2" d="M16 3.208c3.531.355 6 1.163 6 2.103 0 1.265-4.481 2.293-10 2.293S2 6.576 2 5.311c0-.94 2.469-1.748 6-2.103 0 0 2.667-.208 4-.208 1.333 0 2.775.085 4 .208Zm0 7c3.531.386 6 1.268 6 2.292 0 1.38-4.481 2.5-10 2.5S2 13.88 2 12.5c0-1.024 2.469-1.906 6-2.292m8 7c3.531.386 6 1.268 6 2.292 0 1.38-4.481 2.5-10 2.5S2 20.88 2 19.5c0-1.024 2.469-1.906 6-2.292"/></svg>

<?xml version="1.0" encoding="UTF-8" standalone="no"?>
<!DOCTYPE svg PUBLIC "-//W3C//DTD SVG 1.1//EN" "http://www.w3.org/Graphics/SVG/1.1/DTD/svg11.dtd">
<svg width="100%" height="100%" viewBox="0 0 24 24" version="1.1" xmlns="http://www.w3.org/2000/svg" xmlns:xlink="http://www.w3.org/1999/xlink" xml:space="preserve" xmlns:serif="http://www.serif.com/" style="fill-rule:evenodd;clip-rule:evenodd;stroke-linecap:round;stroke-linejoin:round;">
    <rect id="Transportation" x="0" y="0" width="24" height="24" style="fill:none;"/>
    <circle cx="12" cy="7" r="1" style="fill:none;stroke:#000;stroke-width:2px;"/>
    <path d="M9,20L12,14L15,20" style="fill:none;fill-rule:nonzero;stroke:#000;stroke-width:2px;"/>
    <path d="M9,13L12,10L15,13" style="fill:none;fill-rule:nonzero;stroke:#000;stroke-width:2px;"/>
    <path d="M12,10L12,14" style="fill:none;fill-rule:nonzero;stroke:#000;stroke-width:2px;"/>
    <path d="M16,3.208C19.531,3.563 22,4.371 22,5.311C22,6.576 17.519,7.604 12,7.604C6.481,7.604 2,6.576 2,5.311C2,4.371 4.469,3.563 8,3.208C8,3.208 10.667,3 12,3C13.333,3 14.775,3.085 16,3.208Z" style="fill:none;stroke:#000;stroke-width:2px;stroke-miterlimit:1.5;"/>
    <path d="M16,10.208C19.531,10.594 22,11.476 22,12.5C22,13.88 17.519,15 12,15C6.481,15 2,13.88 2,12.5C2,11.476 4.469,10.594 8,10.208" style="fill:none;stroke:#000;stroke-width:2px;stroke-miterlimit:1.5;"/>
    <path d="M16,17.208C19.531,17.594 22,18.476 22,19.5C22,20.88 17.519,22 12,22C6.481,22 2,20.88 2,19.5C2,18.476 4.469,17.594 8,17.208" style="fill:none;stroke:#000;stroke-width:2px;stroke-miterlimit:1.5;"/>
</svg>
